packages/ui/public/icons/limited-edition-pass.svg

<svg width="91" height="92" viewBox="0 0 91 92" fill="none" xmlns="http://www.w3.org/2000/svg">
<path opacity="0.15" fill-rule="evenodd" clip-rule="evenodd" d="M46.5626 2.13721C71.1049 2.13721 91.0002 22.0324 91.0002 46.5743C91.0002 71.1161 71.1049 91.0109 46.5626 91.0109C22.0202 91.0109 2.12488 71.1163 2.12488 46.5743C2.12488 22.0324 22.02 2.13721 46.5626 2.13721Z" fill="black"/>
<path d="M45.4379 5.25171C67.6319 5.25171 85.6245 23.2433 85.6245 45.4373C85.6245 67.6313 67.6319 85.6223 45.4379 85.6223C23.2436 85.6223 5.25159 67.6307 5.25159 45.4373C5.25159 23.2437 23.2436 5.25171 45.4379 5.25171Z" fill="#9C4DC1"/>
<path opacity="0.3" fill-rule="evenodd" clip-rule="evenodd" d="M47.7183 7.40521C25.8056 7.40521 8.04242 25.1684 8.04242 47.0805C8.04242 59.9807 14.2032 71.4389 23.7396 78.685C12.7295 71.5171 5.44385 59.1089 5.44385 44.9922C5.44385 22.7984 23.4356 4.80664 45.6302 4.80664C59.7479 4.80664 72.1567 12.0928 79.3246 23.1033C72.0781 13.5668 60.6198 7.40521 47.7183 7.40521Z" fill="black"/>
<path fill-rule="evenodd" clip-rule="evenodd" d="M45.4378 1C20.8955 1 1.00012 20.8952 1.00012 45.4371C1.00012 69.9789 20.8955 89.8738 45.4378 89.8738C69.9801 89.8738 89.8755 69.9789 89.8755 45.4371C89.8755 20.8952 69.9801 1 45.4378 1ZM45.4378 84.8185C23.6873 84.8185 6.05545 67.1868 6.05545 45.4369C6.05545 23.6872 23.6873 6.05533 45.4378 6.05533C67.1879 6.05533 84.82 23.6872 84.82 45.4369C84.82 67.1868 67.1879 84.8185 45.4378 84.8185Z" fill="white"/>
<path d="M45.4378 1C20.8955 1 1.00012 20.8952 1.00012 45.4371C1.00012 69.9789 20.8955 89.8738 45.4378 89.8738C69.9801 89.8738 89.8755 69.9789 89.8755 45.4371C89.8755 20.8952 69.9801 1 45.4378 1ZM45.4378 84.8185C23.6873 84.8185 6.05545 67.1868 6.05545 45.4369C6.05545 23.6872 23.6873 6.05533 45.4378 6.05533C67.1879 6.05533 84.82 23.6872 84.82 45.4369C84.82 67.1868 67.1879 84.8185 45.4378 84.8185Z" stroke="#EAEAEA" stroke-width="0.168706" stroke-miterlimit="10"/>
<path d="M32.3761 46.0533V51.6975L19.3157 40.0674V34.4233L32.3761 46.0533Z" fill="#83722C"/>
<path d="M71.5602 34.4233V40.0674L58.4998 51.6975V46.0533L71.5602 34.4233Z" fill="#8E7C2F"/>
<path d="M72.4542 34.1587V39.8025L58.9467 51.8297V46.1856L72.4542 34.1587Z" fill="#8032A5"/>
<path d="M31.9291 46.1856V51.8297L18.4216 39.8025V34.1587L31.9291 46.1856Z" fill="#8032A5"/>
<path d="M61.5817 62.4777V68.1215L58.4998 51.6974V46.0532L61.5817 62.4777Z" fill="#7C7457"/>
<path d="M32.3762 46.0532V51.6974L29.2941 68.1215V62.4777L32.3762 46.0532Z" fill="#807859"/>
<path d="M61.5816 62.4777V68.1215L45.4366 60.368V54.7241L61.5816 62.4777Z" fill="#8B792E"/>
<path d="M45.4366 54.7241V60.368L29.2941 68.1215V62.4777L45.4366 54.7241Z" fill="#948031"/>
<path d="M45.4365 17.0842L53.4618 31.9385L71.5601 34.4233L58.4996 46.0533L61.5815 62.4778L45.4365 54.7242L29.294 62.4778L32.3761 46.0533L19.3157 34.4233L37.3665 32.0275L45.4365 17.0842Z" fill="#D783FF"/>
<path d="M72.4541 34.1587L58.9468 46.1856L62.1363 63.1735L45.4368 55.1529L28.7397 63.1735L31.9293 46.1856L18.4218 34.1587L37.0896 31.6807L45.4368 16.2263L53.7865 31.6807L72.4541 34.1587ZM61.5816 62.4778L58.4997 46.0533L71.5601 34.4233L53.5093 32.0273L45.4368 17.084L37.3667 32.0273L19.3159 34.4233L32.3764 46.0533L29.2942 62.4778L45.4368 54.7242L61.5816 62.4778Z" fill="#8032A5"/>
<path d="M45.4364 55.1531L28.7394 63.1738V68.8176L45.4364 60.7969L62.136 68.8176V63.1738L45.4364 55.1531Z" fill="#8032A5"/>
<path d="M31.2154 51.4309L64.3259 33.2251L53.5785 31.9822L51.9409 28.7754L27.6139 41.9729L32.2092 46.2284L31.2154 51.4309Z" fill="url(#paint0_linear_976_3154)"/>
<path opacity="0.8" fill-rule="evenodd" clip-rule="evenodd" d="M54.6944 32.9567C53.9986 33.5348 53.733 39.9059 53.733 39.9059C53.733 39.9059 53.2692 33.4467 52.5909 32.9677C51.9132 32.488 47.6838 31.9792 47.6838 31.9792C47.6838 31.9792 52.2279 31.4814 52.7206 30.9017C53.2134 30.3215 53.7328 22.7227 53.7328 22.7227C53.7328 22.7227 54.2351 30.1432 54.7378 30.9484C55.2405 31.7531 61.7493 31.9794 61.7493 31.9794C61.7493 31.9794 55.3905 32.3777 54.6944 32.9567Z" fill="white"/>
<path opacity="0.8" fill-rule="evenodd" clip-rule="evenodd" d="M33.033 61.1989C32.4951 61.6454 32.2895 66.5709 32.2895 66.5709C32.2895 66.5709 31.9307 61.5773 31.407 61.2071C30.883 60.8365 27.6139 60.4431 27.6139 60.4431C27.6139 60.4431 31.1264 60.0591 31.5072 59.6099C31.8878 59.1615 32.2895 53.2883 32.2895 53.2883C32.2895 53.2883 32.6778 59.0241 33.0662 59.6462C33.455 60.2681 38.486 60.4429 38.486 60.4429C38.486 60.4429 33.5708 60.7511 33.033 61.1989Z" fill="white"/>
<path d="M72.0074 34.2025L65.7891 33.3699L30.9142 53.2884L29.8966 59.1505L72.0074 34.2025Z" fill="url(#paint1_linear_976_3154)"/>
<path opacity="0.8" fill-rule="evenodd" clip-rule="evenodd" d="M59.5211 47.6881C59.1839 47.968 59.0552 51.0546 59.0552 51.0546C59.0552 51.0546 58.8303 47.9256 58.502 47.6934C58.1738 47.4609 56.125 47.2145 56.125 47.2145C56.125 47.2145 58.3262 46.9736 58.5651 46.6926C58.8039 46.4114 59.0552 42.731 59.0552 42.731C59.0552 42.731 59.2986 46.3253 59.542 46.7152C59.7856 47.1051 62.9383 47.2145 62.9383 47.2145C62.9383 47.2145 59.8579 47.4074 59.5211 47.6881Z" fill="white"/>
<path opacity="0.8" fill-rule="evenodd" clip-rule="evenodd" d="M39.8487 46.6522C39.3819 47.0398 39.2036 51.3141 39.2036 51.3141C39.2036 51.3141 38.8925 46.981 38.4376 46.6597C37.983 46.3382 35.1458 45.997 35.1458 45.997C35.1458 45.997 38.1943 45.6629 38.525 45.2737C38.8553 44.8841 39.2036 39.7869 39.2036 39.7869C39.2036 39.7869 39.5408 44.7649 39.8778 45.305C40.2151 45.8446 44.5813 45.997 44.5813 45.997C44.5813 45.997 40.3157 46.2639 39.8487 46.6522Z" fill="white"/>
<path opacity="0.7" fill-rule="evenodd" clip-rule="evenodd" d="M25.8273 40.8492C25.238 41.3394 25.0125 46.738 25.0125 46.738C25.0125 46.738 24.6195 41.2648 24.0452 40.8591C23.4704 40.4527 19.8871 40.0217 19.8871 40.0217C19.8871 40.0217 23.7377 39.5997 24.1548 39.1086C24.572 38.6169 25.0125 32.178 25.0125 32.178C25.0125 32.178 25.4383 38.466 25.8643 39.1479C26.2899 39.8292 31.8049 40.0217 31.8049 40.0217C31.8049 40.0217 26.4173 40.3591 25.8273 40.8492Z" fill="white"/>
<path opacity="0.8" fill-rule="evenodd" clip-rule="evenodd" d="M61.1484 67.9909C60.853 68.2358 60.7406 70.9386 60.7406 70.9386C60.7406 70.9386 60.5435 68.1986 60.2561 67.9955C59.9687 67.792 58.1747 67.5759 58.1747 67.5759C58.1747 67.5759 60.102 67.3652 60.3112 67.119C60.5204 66.8727 60.7406 63.6501 60.7406 63.6501C60.7406 63.6501 60.9536 66.7976 61.1668 67.1389C61.3802 67.4804 64.1407 67.5761 64.1407 67.5761C64.1407 67.5761 61.4434 67.7449 61.1484 67.9909Z" fill="white"/>
<path opacity="0.8" fill-rule="evenodd" clip-rule="evenodd" d="M43.1341 21.5165C42.8387 21.7614 42.7263 24.4642 42.7263 24.4642C42.7263 24.4642 42.5293 21.7242 42.2418 21.5211C41.9544 21.3176 40.1604 21.1015 40.1604 21.1015C40.1604 21.1015 42.0877 20.8908 42.2969 20.6446C42.5061 20.3984 42.7263 17.1758 42.7263 17.1758C42.7263 17.1758 42.9393 20.3232 43.1525 20.6645C43.3659 21.0061 46.1264 21.1017 46.1264 21.1017C46.1264 21.1017 43.4291 21.2705 43.1341 21.5165Z" fill="white"/>
<path opacity="0.8" fill-rule="evenodd" clip-rule="evenodd" d="M19.3156 34.4233C19.0202 34.6682 18.9078 37.371 18.9078 37.371C18.9078 37.371 18.7108 34.631 18.4234 34.4278C18.1359 34.2243 16.3419 34.0083 16.3419 34.0083C16.3419 34.0083 18.2692 33.7976 18.4784 33.5513C18.6876 33.3051 18.9078 30.0825 18.9078 30.0825C18.9078 30.0825 19.1208 33.2299 19.334 33.5713C19.5474 33.9128 22.3079 34.0085 22.3079 34.0085C22.3079 34.0085 19.6106 34.1772 19.3156 34.4233Z" fill="white"/>
<path opacity="0.8" fill-rule="evenodd" clip-rule="evenodd" d="M65.0191 55.5195C64.682 55.7993 64.5533 58.886 64.5533 58.886C64.5533 58.886 64.3283 55.757 64.0001 55.5248C63.6718 55.2922 61.623 55.0458 61.623 55.0458C61.623 55.0458 63.8243 54.8049 64.0631 54.524C64.3019 54.2428 64.5533 50.5625 64.5533 50.5625C64.5533 50.5625 64.7967 54.1568 65.04 54.5465C65.2836 54.9365 68.4363 55.0458 68.4363 55.0458C68.4363 55.0458 65.3559 55.2387 65.0191 55.5195Z" fill="white"/>
<path opacity="0.8" fill-rule="evenodd" clip-rule="evenodd" d="M23.4867 49.4057C23.2183 49.6286 23.1158 52.0861 23.1158 52.0861C23.1158 52.0861 22.9367 49.5948 22.6753 49.4099C22.4141 49.2248 20.783 49.0285 20.783 49.0285C20.783 49.0285 22.5354 48.8367 22.7256 48.6131C22.9157 48.3891 23.1159 45.4592 23.1159 45.4592C23.1159 45.4592 23.3098 48.3207 23.5036 48.6311C23.6974 48.9417 26.2075 49.0287 26.2075 49.0287C26.2075 49.0287 23.7548 49.1822 23.4867 49.4057Z" fill="white"/>
<path opacity="0.8" fill-rule="evenodd" clip-rule="evenodd" d="M49.846 18.1393C49.5776 18.3622 49.4751 20.8197 49.4751 20.8197C49.4751 20.8197 49.296 18.3284 49.0346 18.1435C48.7734 17.9584 47.1421 17.7621 47.1421 17.7621C47.1421 17.7621 48.8945 17.5704 49.0848 17.3467C49.2748 17.1227 49.4751 14.1929 49.4751 14.1929C49.4751 14.1929 49.6689 17.0544 49.8627 17.3648C50.0566 17.6754 52.5665 17.7623 52.5665 17.7623C52.5665 17.7623 50.1141 17.9159 49.846 18.1393Z" fill="white"/>
<path opacity="0.8" fill-rule="evenodd" clip-rule="evenodd" d="M47.6867 63.4217C47.4727 63.5994 47.3909 65.5576 47.3909 65.5576C47.3909 65.5576 47.2482 63.5724 47.0399 63.4253C46.8316 63.2778 45.532 63.1213 45.532 63.1213C45.532 63.1213 46.9283 62.9685 47.08 62.7902C47.2315 62.6118 47.3909 60.2771 47.3909 60.2771C47.3909 60.2771 47.5453 62.5573 47.6998 62.8045C47.8543 63.052 49.8545 63.1213 49.8545 63.1213C49.8545 63.1213 47.9003 63.2436 47.6867 63.4217Z" fill="white"/>
<defs>
<linearGradient id="paint0_linear_976_3154" x1="36.2918" y1="54.3618" x2="52.4528" y2="26.3702" gradientUnits="userSpaceOnUse">
<stop stop-color="white" stop-opacity="0.1"/>
<stop offset="0.9958" stop-color="white" stop-opacity="0.4"/>
</linearGradient>
<linearGradient id="paint1_linear_976_3154" x1="39.3992" y1="64.6369" x2="60.7297" y2="27.6914" gradientUnits="userSpaceOnUse">
<stop stop-color="white" stop-opacity="0.1"/>
<stop offset="1" stop-color="white" stop-opacity="0.3"/>
</linearGradient>
</defs>
</svg>

<svg width="91" height="92" fill="none" xmlns="http://www.w3.org/2000/svg"><path opacity=".15" fill-rule="evenodd" clip-rule="evenodd" d="M46.563 2.137C71.105 2.137 91 22.032 91 46.574c0 24.542-19.895 44.437-44.437 44.437-24.543 0-44.438-19.895-44.438-44.437 0-24.542 19.895-44.437 44.438-44.437Z" fill="#000"/><path d="M45.438 5.252c22.194 0 40.186 17.991 40.186 40.185 0 22.194-17.992 40.185-40.186 40.185S5.252 67.631 5.252 45.437c0-22.193 17.992-40.185 40.186-40.185Z" fill="#9C4DC1"/><path opacity=".3" fill-rule="evenodd" clip-rule="evenodd" d="M47.718 7.405c-21.912 0-39.676 17.763-39.676 39.676 0 12.9 6.161 24.358 15.698 31.604C12.73 71.517 5.444 59.109 5.444 44.992c0-22.194 17.992-40.185 40.186-40.185 14.118 0 26.527 7.286 33.695 18.296C72.078 13.567 60.62 7.405 47.718 7.405Z" fill="#000"/><path fill-rule="evenodd" clip-rule="evenodd" d="M45.438 1C20.895 1 1 20.895 1 45.437 1 69.98 20.895 89.874 45.438 89.874c24.542 0 44.438-19.895 44.438-44.437C89.876 20.895 69.98 1 45.438 1Zm0 83.819c-21.75 0-39.383-17.632-39.383-39.382 0-21.75 17.632-39.382 39.383-39.382 21.75 0 39.382 17.632 39.382 39.382 0 21.75-17.632 39.382-39.382 39.382Z" fill="#fff"/><path d="M45.438 1C20.895 1 1 20.895 1 45.437 1 69.98 20.895 89.874 45.438 89.874c24.542 0 44.438-19.895 44.438-44.437C89.876 20.895 69.98 1 45.438 1Zm0 83.819c-21.75 0-39.383-17.632-39.383-39.382 0-21.75 17.632-39.382 39.383-39.382 21.75 0 39.382 17.632 39.382 39.382 0 21.75-17.632 39.382-39.382 39.382Z" stroke="#EAEAEA" stroke-width=".169" stroke-miterlimit="10"/><path d="M32.376 46.053v5.645l-13.06-11.63v-5.645l13.06 11.63Z" fill="#83722C"/><path d="M71.56 34.423v5.644L58.5 51.697v-5.644l13.06-11.63Z" fill="#8E7C2F"/><path d="M72.454 34.159v5.644L58.947 51.83v-5.644l13.507-12.027ZM31.93 46.186v5.644L18.421 39.803v-5.644l13.507 12.027Z" fill="#8032A5"/><path d="M61.582 62.478v5.643L58.5 51.697v-5.644l3.082 16.425Z" fill="#7C7457"/><path d="M32.376 46.053v5.644l-3.082 16.424v-5.643l3.082-16.425Z" fill="#807859"/><path d="M61.582 62.478v5.643l-16.145-7.753v-5.644l16.145 7.754Z" fill="#8B792E"/><path d="M45.437 54.724v5.644l-16.143 7.753v-5.643l16.143-7.754Z" fill="#948031"/><path d="m45.437 17.084 8.025 14.855 18.098 2.484-13.06 11.63 3.081 16.425-16.145-7.754-16.142 7.754 3.082-16.425-13.06-11.63 18.05-2.395 8.07-14.944Z" fill="#D783FF"/><path d="M72.454 34.159 58.947 46.186l3.19 16.987-16.7-8.02-16.697 8.02 3.19-16.987-13.508-12.027L37.09 31.68l8.347-15.455 8.35 15.455 18.667 2.478ZM61.582 62.478 58.5 46.053l13.06-11.63-18.05-2.396-8.073-14.943-8.07 14.943-18.051 2.396 13.06 11.63-3.082 16.425 16.143-7.754 16.145 7.754Z" fill="#8032A5"/><path d="m45.436 55.153-16.697 8.02v5.645l16.697-8.021 16.7 8.02v-5.643l-16.7-8.02Z" fill="#8032A5"/><path d="m31.215 51.43 33.11-18.205-10.747-1.243-1.637-3.207-24.327 13.198 4.595 4.255-.994 5.203Z" fill="url(#a)"/><path opacity=".8" fill-rule="evenodd" clip-rule="evenodd" d="M54.694 32.957c-.695.578-.961 6.949-.961 6.949s-.464-6.46-1.142-6.938c-.678-.48-4.907-.989-4.907-.989s4.544-.498 5.037-1.077c.492-.58 1.012-8.18 1.012-8.18s.502 7.421 1.005 8.226c.502.805 7.011 1.031 7.011 1.031s-6.358.399-7.055.978ZM33.033 61.199c-.538.446-.744 5.372-.744 5.372s-.358-4.994-.882-5.364c-.524-.37-3.793-.764-3.793-.764s3.512-.384 3.893-.833c.38-.449.782-6.322.782-6.322s.389 5.736.777 6.358c.389.622 5.42.797 5.42.797s-4.915.308-5.453.756Z" fill="#fff"/><path d="m72.007 34.203-6.218-.833-34.875 19.918-1.017 5.863 42.11-24.949Z" fill="url(#b)"/><path opacity=".8" fill-rule="evenodd" clip-rule="evenodd" d="M59.521 47.688c-.337.28-.466 3.367-.466 3.367s-.225-3.13-.553-3.362c-.328-.232-2.377-.478-2.377-.478s2.201-.241 2.44-.522c.239-.282.49-3.962.49-3.962s.244 3.594.487 3.984c.244.39 3.396.5 3.396.5s-3.08.192-3.417.473ZM39.849 46.652c-.467.388-.645 4.662-.645 4.662s-.312-4.333-.766-4.654c-.455-.322-3.292-.663-3.292-.663s3.048-.334 3.379-.723c.33-.39.679-5.487.679-5.487s.337 4.978.674 5.518 4.703.692 4.703.692-4.265.267-4.732.655Z" fill="#fff"/><path opacity=".7" fill-rule="evenodd" clip-rule="evenodd" d="M25.827 40.85c-.589.49-.815 5.888-.815 5.888s-.393-5.473-.967-5.879c-.575-.406-4.158-.837-4.158-.837s3.85-.422 4.268-.913c.417-.492.857-6.931.857-6.931s.426 6.288.852 6.97c.426.681 5.94.874 5.94.874s-5.387.337-5.977.827Z" fill="#fff"/><path opacity=".8" fill-rule="evenodd" clip-rule="evenodd" d="M61.148 67.99c-.295.246-.407 2.949-.407 2.949s-.197-2.74-.485-2.943c-.287-.204-2.081-.42-2.081-.42s1.927-.21 2.136-.457c.21-.246.43-3.469.43-3.469s.213 3.148.426 3.489c.213.341 2.974.437 2.974.437s-2.698.169-2.993.415ZM43.134 21.517c-.295.244-.408 2.947-.408 2.947s-.197-2.74-.484-2.943c-.288-.203-2.082-.42-2.082-.42s1.928-.21 2.137-.456c.21-.247.43-3.47.43-3.47s.212 3.148.426 3.49c.213.341 2.973.437 2.973.437s-2.697.168-2.992.415ZM19.316 34.423c-.296.245-.408 2.948-.408 2.948s-.197-2.74-.485-2.943c-.287-.204-2.081-.42-2.081-.42s1.927-.21 2.136-.457c.21-.246.43-3.469.43-3.469s.213 3.148.426 3.49c.213.34 2.974.436 2.974.436s-2.697.17-2.992.415ZM65.02 55.52c-.338.28-.467 3.366-.467 3.366s-.225-3.129-.553-3.361c-.328-.233-2.377-.48-2.377-.48s2.201-.24 2.44-.521c.239-.281.49-3.962.49-3.962s.244 3.595.487 3.985c.244.39 3.396.499 3.396.499s-3.08.193-3.417.474ZM23.487 49.406c-.269.223-.371 2.68-.371 2.68s-.18-2.491-.44-2.676c-.262-.185-1.893-.381-1.893-.381s1.752-.192 1.943-.416c.19-.224.39-3.154.39-3.154s.194 2.862.388 3.172c.193.31 2.703.398 2.703.398s-2.452.153-2.72.377ZM49.846 18.14c-.268.222-.37 2.68-.37 2.68s-.18-2.492-.441-2.677c-.262-.185-1.893-.38-1.893-.38s1.752-.193 1.943-.416c.19-.224.39-3.154.39-3.154s.194 2.861.388 3.172c.194.31 2.703.397 2.703.397s-2.452.154-2.72.377ZM47.687 63.422c-.214.177-.296 2.136-.296 2.136s-.143-1.986-.351-2.133c-.208-.147-1.508-.304-1.508-.304s1.396-.153 1.548-.33c.151-.18.31-2.514.31-2.514s.155 2.28.31 2.527c.154.248 2.154.317 2.154.317s-1.954.123-2.167.3Z" fill="#fff"/><defs><linearGradient id="a" x1="36.292" y1="54.362" x2="52.453" y2="26.37" gradientUnits="userSpaceOnUse"><stop stop-color="#fff" stop-opacity=".1"/><stop offset=".996" stop-color="#fff" stop-opacity=".4"/></linearGradient><linearGradient id="b" x1="39.399" y1="64.637" x2="60.73" y2="27.691" gradientUnits="userSpaceOnUse"><stop stop-color="#fff" stop-opacity=".1"/><stop offset="1" stop-color="#fff" stop-opacity=".3"/></linearGradient></defs></svg>
